X:74
T:Woodpecker
O: No 74 Wm Clarke MS  Feltwell, Norfolk
I:abc2nwc
M:2/2
L:1/8
K:C
"^Slow"G2|c2cc c2Bc|(ed)(dd) d2cd|e2dc cBce|
dBcA GGAB|c2cc c2Bc|(ed)(dd) d2ef|
g2ec A2FF|G2AB cdef|g2ec A2FF|G2AB {d}c2:|
|:GG|G2FE D2AA|A2(GF) (FE)cd|eeee ce ze|
edcB A2AB|c2(cB) (BA) zA|d2(dc) (cB) zG|
e2(ed) (dc)"^*" (3cde|f2fee{d}d zG|c2(cB) (BA) zA|
d2(dc) (cB) ef|g2ec A2FF|G2AB cdef|
g2ec A2FF|G2AB {d}c2:|

